X: 712
T: Mai jindan
L: 1/8
M: 2/4
K: G
d ed2 [I:setbarnb 1]| 
d ed2 | 
A B d A | 
G4 | 
E3G | 
A B A G | 
E G F E | 
D4 | 
A GA2 | 
zd2e | 
d3G | 
A B A E | 
D4 | 
d Bd2 | 
d ed2 | 
d e d B | 
d2G2 | 
B B F E | 
D4 |]

@@@ Tune index: 9586
